X:1
T: Death Valley Reunion
C:Gordy Euler
R:Jig
Q: 180
K:A
M:6/8
L:1/16
|:a4a2 e4e2|f2e2d2 e6|a2e2c2 A2B2c2|d2B2d2 e2f2g2|
a4a2 e4e2|f2a2f2 e4e2|a2e2a2 =g2e2^g2|a2e2c2 A6:|
|:A4a2 a2=g2a2|b2=g2e2 d2c2B2|A4a2 a2=g2a2|b2a2g2 a4e2|
A4a2 a4e2|f2a2f2 e4e2|a2e2a2 =g2e2^g2|a2e2c2 A6:|
